X:1
T:Alone
T:Ben H. Price, 1914
T:Alone
T:Public Domain
T:Public Domain
C:Ben H. Price, 1914
Z:Public Domain
%%score ( 1 2 ) ( 3 4 )
L:1/8
M:4/4
K:F
V:1 treble 
V:2 treble 
V:3 bass 
V:4 bass 
V:1
 [A,F]"^Duet"[A,F]>[B,G] | [CA]4- [CA][_EF] [DB]>[_DF] | [CA]6 [FA]2 | [Ec]4- [Ec][EB][EG][D^G] | %4
w: 1.~It was a-|lone * the Sav- ior|prayed In|dark * Geth- sem- a-|
w: 2.~It was a-|lone * the Sav- ior|stood In|Pi- * late’s judg- ment|
w: 3.~A- lone up-|on * the cross He|hung That|o- * thers He might|
w: 4.~Can you re-|ject * such match- less|love? Can|you * His claim dis-|
 [CA]4- [CA] x | [A,F][A,F]>[B,G] | [CA]4- [CA][_Ec] [Ec]>[EF] | [DF]6 [DB]2 | %8
w: ne; *|A- lone He|drained * the bit- ter|cup And|
w: hall; *|A- lone the|crown * of thorns He|wore For-|
w: save; *|For- sak- en|then * by God and|man A-|
w: own? *|Come, give your|all * in gra- ti-|tude, Nor|
 [CA]3 [A,C] [B,G]3 [B,C] | [A,F]6 ||"^Refrain" F2 | [DB]6"^Quartet" F2 | [FA]6 [FA]2 | %13
w: suf- fered there for|me.||||
w: sak- en thus by|all.|A-|a- lone,|bore it|
w: lone, His life He|gave.||||
w: leave Him thus a-|lone.||||
 [FG]3 [DF] [FG]2 [FA]2 | (EED_D C2) [EB]2 | [FA]3 [FA] [EB][EB][_Ec][Ec] |!ff! (D2 F4) [DF]2 | %17
w: ||||
w: all a- lone; He|gave * * * * Him-|to save His own, He suf-|fered, * bled|
w: ||||
w: ||||
 [CF]<[FA] [FB][FA] [FG][=B,D][_B,G][B,C] | [A,F]4- [A,F] |] %19
w: ||
w: died a- lone, a- lone. * * *||
w: ||
w: ||
V:2
 x3 | x8 | x8 | x8 | x6 | x3 | x8 | x8 | x8 | x6 || F2 | x6 F2 | x8 | x8 | G6 x2 | x8 | d6 x2 | %17
w: |||||||||||||||||
w: ||||||||||lone,|He|||self||and|
 x8 | x5 |] %19
w: ||
w: ||
V:3
 z z2 | (z C,F,G, A,2) [B,,F,]2 | z C,F,G, A,2 [F,C]2 | z E,G,B, C2 C,2 | z C,F,G, A, x | z z2 | %6
w: |* * * * ~|* * * * ~|* * * * ~|||
 (z C,F,G, A,2) [F,A,]2 | (z F,G,F, B,2) [B,,F,]2 | [C,F,]4 E,3 G, | [F,,F,]6 || F,2 | %11
w: * * * * ~|* * * * ~|* ~ ~|~|~|
 F,F,G,F, B,2 [B,,D]2 | F,C,F,G, A,2 [F,C]2 | [D,=B,]3 [G,B,] [D,B,]2 [G,,B,]2 | %14
w: it was a- lone, ~ ~|all a- lone ~ ~ ~|~ ~ yes, all|
 C,C,D,_E, =E,2 [C,C]2 | [F,C]3 [F,C] [G,C][G,C][F,A,][F,A,] | [B,,B,]6 [=B,,^G,]2 | %17
w: a- lone; * * * *|||
 ^A,<[C,C] [C,D][C,C] [D,=B,][D,G,][C,E,][E,G,] | F,4- F, |] %19
w: ||
V:4
 x3 | F,,6 x2 | F,,6 x2 | C,6 x2 | F,,6 | x3 | F,,6 x2 | B,,6 x2 | x4 C,4 | x6 || F,2 | B,,6 x2 | %12
w: |~|~|~|~||~|~|~||~|yes,|
 C6 x2 | x8 | B,6 x2 | x8 | x8 | x8 | F,4- F, |] %19
w: ~|||||||

